HTML/Module-11/build/images/sprite/search.svg

<svg xmlns="http://www.w3.org/2000/svg" viewBox="0 0 20 20"><path d="M18.32 15.98c.3.3.48.71.48 1.17 0 .91-.74 1.65-1.65 1.65-.46 0-.87-.19-1.17-.48l-4.83-4.84c-.98.58-2.13.92-3.35.92a6.6 6.6 0 01-6.6-6.6c0-3.65 2.95-6.6 6.6-6.6 3.65 0 6.6 2.95 6.6 6.6 0 1.22-.34 2.36-.92 3.35l4.84 4.83zM7.8 2.85c-2.73 0-4.95 2.22-4.95 4.95s2.22 4.95 4.95 4.95 4.95-2.22 4.95-4.95-2.22-4.95-4.95-4.95z"/></svg>

<svg xmlns="http://www.w3.org/2000/svg" viewBox="0 0 20 20" >
	
	
			<path d="M18.32 15.98C18.62 16.28 18.8 16.69 18.8 17.15C18.8 18.06 18.06 18.8 17.15 18.8C16.69 18.8 16.28 18.61 15.98 18.32L15.98 18.32L11.15 13.48C10.17 14.06 9.02 14.4 7.8 14.4C4.15 14.4 1.2 11.44 1.2 7.8C1.2 4.15 4.15 1.2 7.8 1.2C11.45 1.2 14.4 4.15 14.4 7.8C14.4 9.02 14.06 10.16 13.48 11.15L18.32 15.98L18.32 15.98ZM7.8 2.85C5.07 2.85 2.85 5.07 2.85 7.8C2.85 10.53 5.07 12.75 7.8 12.75C10.53 12.75 12.75 10.53 12.75 7.8C12.75 5.07 10.53 2.85 7.8 2.85Z" />
	
</svg>
